.local/share/icons/Gruvbox-Plus-Dark/actions/24/text-wiki.svg

<svg width="24" height="24" version="1.1" xmlns="http://www.w3.org/2000/svg">
  <defs>
    <style id="current-color-scheme" type="text/css">.ColorScheme-Text { color:#ebdbb2; } .ColorScheme-Highlight { color:#458588; }</style>
  </defs>
  <path class="ColorScheme-Text" d="m12.84 7.004-0.0409 0.0269v0.2868c0 0.0349 0.0152 0.0594 0.0454 0.0806 0.0308 0.0224 0.0616 0.0359 0.0953 0.0359l0.1316 0.0134c0.3386 0.0138 0.4981 0.1018 0.5445 0.1568 0.0808 0.0975 0.1186 0.2058-0.0771 0.6273l-1.171 2.303-1.057-2.137c-0.3473-0.683-0.432-0.8962 0.0908-0.9364l0.2087-0.0269c0.1005 0 0.1498-0.0348 0.1498-0.103v-0.3002l-0.0772-0.0269-2.854 0.0045-0.0409 0.0269v0.3001c0 0.0671 0.0717 0.0853 0.2087 0.1031 0.4897 0.0637 0.4776 0.1139 0.962 1.062l1.711 3.414-1.602 3.154-0.0908-0.022-3.208-6.913c-0.0749-0.1795-0.1089-0.3122-0.1089-0.3942 0-0.1761 0.1592-0.2691 0.481-0.2823l0.3767-0.0179c0.0993 0 0.1497-0.0379 0.1497-0.1165v-0.2823l-0.0363-0.0313h-3.594l-0.0318 0.0313v0.2957c0 0.054 0.06538 0.0882 0.2042 0.1031 0.3781 0.02 0.6291 0.08 0.7487 0.1792 0.1191 0.1004 0.4129 0.7482 0.4129 0.7482l3.762 8.154c0.2695 0.595 0.6052 0.688 1.016-0.018l1.847-3.661c0.0091-0.1243 0.1225 0.0403 0.1225 0.0403l1.688 3.611c0.3045 0.621 0.6505 0.681 1.002 0.018l3.617-8.105c0.117-0.2988 0.277-0.5275 0.485-0.6944 0.208-0.1657 0.529-0.2589 0.962-0.2778 0.089 0 0.132-0.039 0.132-0.1165v-0.2867l-0.032-0.0314h-3.308l-0.041 0.0314v0.2867c0 0.0338 0.015 0.0594 0.046 0.0807 0.031 0.0223 0.061 0.0358 0.095 0.0358l0.277 0.0135c0.339 0.0138 0.431 0.0802 0.563 0.1926 0.13 0.1153 0.147 0.3105 0.045 0.5869l-2.927 6.86-0.113-0.031-1.861-3.75 2.001-3.584c0.159-0.2254 0.248-0.2666 0.681-0.2867 0.088 0 0.132-0.0379 0.132-0.1165v-0.2823l-0.032-0.0314z" fill="currentColor"/>
</svg>

<svg xmlns="http://www.w3.org/2000/svg" width="24" height="24" version="1.1">
 <defs>
  <style id="current-color-scheme" type="text/css">
   .ColorScheme-Text { color:#565656; } .ColorScheme-Highlight { color:#4285f4; }
  </style>
 </defs>
 <path style="fill:currentColor" class="ColorScheme-Text" d="M 12.835,7.0047 12.794,7.0317 V 7.3187 C 12.794,7.3527 12.809,7.3777 12.84,7.3987 12.87,7.4217 12.901,7.4347 12.935,7.4347 L 13.067,7.4477 C 13.405,7.4617 13.565,7.5497 13.611,7.6047 13.692,7.7027 13.73,7.8107 13.534,8.2327 L 12.363,10.535 11.306,8.3977 C 10.959,7.7147 10.874,7.5017 11.397,7.4617 L 11.605,7.4347 C 11.706,7.4347 11.755,7.3997 11.755,7.3317 V 7.0317 L 11.678,7.0047 8.8237,7.0087 8.7828,7.0357 V 7.3357 C 8.7828,7.4027 8.8545,7.4217 8.9915,7.4387 9.4812,7.5027 9.4691,7.5527 9.9535,8.5007 L 11.664,11.915 10.063,15.069 9.9717,15.047 6.7635,8.1337 C 6.6886,7.9537 6.6546,7.8217 6.6546,7.7397 6.6546,7.5637 6.8138,7.4707 7.1356,7.4567 L 7.5123,7.4387 C 7.6116,7.4387 7.662,7.4017 7.662,7.3227 V 7.0407 L 7.6257,7.0087 H 4.0318 L 4,7.0407 V 7.3357 C 4,7.3897 4.0654,7.4247 4.2042,7.4387 4.5823,7.4587 4.8333,7.5187 4.9529,7.6187 5.072,7.7187 5.3658,8.3667 5.3658,8.3667 L 9.1276,16.521 C 9.3971,17.116 9.7328,17.209 10.144,16.503 L 11.991,12.842 C 12,12.718 12.113,12.883 12.113,12.883 L 13.802,16.494 C 14.106,17.115 14.452,17.175 14.804,16.512 L 18.421,8.4067 C 18.538,8.1077 18.698,7.8787 18.906,7.7117 19.114,7.5467 19.435,7.4537 19.868,7.4347 19.957,7.4347 20,7.3957 20,7.3177 V 7.0307 L 19.968,6.9997 H 16.66 L 16.619,7.0307 V 7.3177 C 16.619,7.3517 16.634,7.3777 16.665,7.3987 16.696,7.4207 16.726,7.4347 16.76,7.4347 L 17.037,7.4477 C 17.376,7.4617 17.468,7.5277 17.6,7.6407 17.73,7.7557 17.747,7.9507 17.645,8.2277 L 14.718,15.087 14.605,15.056 12.744,11.306 14.745,7.7217 C 14.904,7.4957 14.993,7.4547 15.426,7.4347 15.514,7.4347 15.558,7.3967 15.558,7.3177 V 7.0357 L 15.526,7.0047 Z"/>
</svg>
